X:1
T:Title
%%score 1 2 3
L:1/8
M:3/2
K:C
V:1 treble nm="Part_1"
V:2 treble-8 nm="Part_2"
V:3 treble-8 nm="Part_3"
V:1
 D4 D4 D4 | E4 D4 G4 | F2 G2 A6 G2 | G6 F2 F2 E2 | G4 z4 A4 | _B8 B4 | _B4 A6 G2 | G6 G2 ^F2 E2 | %8
 G4 z4 E4 | D4 B,2 G,2 B,2 C2 | B,4 A,8 | z4 z4 C4 | D4 A6 G2 | _B8 G4 | A4 F2 D2 F2 EF | %15
 G2 A2 _B6 A2 | A4 G6 F2 | F4 E6 D2 | F2 E2 D6 C2 | C6 C2 B,2 A,2 | C4 z4 F2 E2 | D6 D2 C2 B,2 | %22
 D6 E2 F4 | F4 _B6 A2 | F2 G2 A6 G2 | G6 ^F2 F2 E2 | G12 |] %27
V:2
 G8 G4 | C4 G8 | A4 c8 | _B4 A8 | G8 F4 | G8 G4 | d8 c4 | _B4 A8 | G8 G4 | F4 G8 | D12- | D8 E4 | %12
 D4 F8 | G8 _B4 | c4 d8 | _B4 G8 | c8 _B4 | A4 G8 | F8 E4- | E4 D8 | C8 D4 | F4 E8 | D12- | D8 d4 | %24
 d4 c8 | B4 A8 | G12 |] %27
V:3
[K:F] G4 B8 | c4 B8 | c4 F8 | G4 D8 | z4 d2 e2 f4 | d8 B4 | G4 B4 F4 | G4 D8 | z4 E4 C4 | D4 E8 | %10
 F12- | F8 G4 | A4 D8 | z4 d4 B4 | A4 D8 | d8 d4 | e8 d4 | c4 B8 | c4 A6 G2 | G4 ^F8 | %20
 z4 G2 c4 B2 | A6 G2 G2 F2 | A8 d4 | B4 A4 G2 F2 | D4 F8 | G4 D8 | d12 |] %27

